www/images/click@2x.svg

<svg fill="none" height="54" viewBox="0 0 54 54" width="54" xmlns="http://www.w3.org/2000/svg"><path d="m34.4034 24.813h-.0918c-.3488-.0006-.6941.0692-1.0152.2052-.0364-.4421-.1859-.8673-.4342-1.2349-.2482-.3676-.5867-.6652-.9831-.8643-.3964-.199-.8373-.2927-1.2804-.2721-.4431.0205-.8734.1546-1.2497.3895-.3167-.5429-.8202-.952-1.4164-1.1508-.5963-.1987-1.2445-.1736-1.8236.0708v-3.5586c0-.6925-.2751-1.3566-.7647-1.8462-.4897-.4896-1.1538-.7647-1.8462-.7647-.6925 0-1.3566.2751-1.8462.7647s-.7647 1.1537-.7647 1.8462v9.612l-.1134-.1728-.054-.0756c-.2194-.268-.4908-.4887-.7979-.6487s-.6435-.2561-.9888-.2823c-.3453-.0263-.6924.0178-1.0201.1296-.3278.1117-.6295.2888-.8868.5206-.474.4301-.7705 1.0217-.8314 1.6589-.0609.6371.1181 1.2741.502 1.7863l5.7834 8.9748v3.7206c0 .2148.0853.4208.2372.5728.1519.1519.358.2372.5728.2372h10.7298c.2148 0 .4208-.0853.5727-.2372.1519-.152.2373-.358.2373-.5728v-3.7044l2.0574-2.8944c.098-.1371.1509-.3013.1512-.4698v-9.1314c-.0007-.3446-.0696-.6857-.2026-1.0035-.133-.3179-.3275-.6064-.5725-.8488-.2449-.2424-.5353-.434-.8545-.5637-.3193-.1297-.661-.1951-1.0056-.1922zm.9882 11.4858-2.0574 2.8944c-.0981.1371-.1509.3013-.1512.4698v3.1482h-9.0828v-3.1482c-.0004-.1552-.0454-.307-.1296-.4374l-5.94-9.18-.0432-.0594c-.1131-.1437-.1818-.3174-.1976-.4996-.0159-.1822.0218-.365.1084-.5261s.2183-.2935.3789-.3808c.1607-.0873.3434-.1259.5257-.1109.2436.0173.4705.1298.6318.3132l1.5714 2.4516c.0907.1591.2327.2828.4028.3509s.3582.0764.5336.0238c.1755-.0526.3279-.1632.4325-.3136.1045-.1505.155-.3319.1431-.5147v-12.3822c0-.2628.1044-.5148.2902-.7007.1858-.1858.4379-.2902.7007-.2902s.5148.1044.7007.2902c.1858.1859.2902.4379.2902.7007v9.8334c0 .2148.0853.4208.2372.5728.1519.1519.358.2372.5728.2372s.4208-.0853.5727-.2372c.1519-.152.2373-.358.2373-.5728v-3.8718c0-.2628.1044-.5148.2902-.7007.1858-.1858.4379-.2902.7007-.2902s.5148.1044.7007.2902c.1858.1859.2902.4379.2902.7007v3.8718c0 .2148.0853.4208.2372.5728.1519.1519.358.2372.5728.2372s.4208-.0853.5727-.2372c.1519-.152.2373-.358.2373-.5728v-2.9808c0-.2628.1044-.5148.2902-.7007.1858-.1858.4379-.2902.7007-.2902s.5148.1044.7007.2902c.1858.1859.2902.4379.2902.7007v4.2066c0 .2148.0853.4208.2372.5728.1519.1519.358.2372.5728.2372s.4208-.0853.5727-.2372c.1519-.152.2373-.358.2373-.5728v-.918s0 0 0-.0378v-1.08c0-.2621.1041-.5134.2894-.6988.1853-.1853.4367-.2894.6988-.2894h.0918c.2621 0 .5134.1041.6987.2894.1854.1854.2895.4367.2895.6988z" fill="#000"/><path d="m35.3916 36.2988-2.0574 2.8944c-.0981.1371-.1509.3013-.1512.4698v3.1482h-9.0828v-3.1482c-.0004-.1552-.0454-.307-.1296-.4374l-5.94-9.18-.0432-.0594c-.1131-.1437-.1818-.3174-.1976-.4996-.0159-.1822.0218-.365.1084-.5261s.2183-.2935.3789-.3808c.1607-.0873.3434-.1259.5257-.1109.2436.0173.4705.1298.6318.3132l1.5714 2.4516c.0907.1591.2327.2828.4028.3509s.3582.0764.5336.0238c.1755-.0526.3279-.1632.4325-.3136.1045-.1505.155-.3319.1431-.5147v-12.3822c0-.2628.1044-.5148.2902-.7007.1858-.1858.4379-.2902.7007-.2902s.5148.1044.7007.2902c.1858.1859.2902.4379.2902.7007v9.8334c0 .2148.0853.4208.2372.5728.1519.1519.358.2372.5728.2372s.4208-.0853.5727-.2372c.1519-.152.2373-.358.2373-.5728v-3.8718c0-.2628.1044-.5148.2902-.7007.1858-.1858.4379-.2902.7007-.2902s.5148.1044.7007.2902c.1858.1859.2902.4379.2902.7007v3.8718c0 .2148.0853.4208.2372.5728.1519.1519.358.2372.5728.2372s.4208-.0853.5727-.2372c.1519-.152.2373-.358.2373-.5728v-2.9808c0-.2628.1044-.5148.2902-.7007.1858-.1858.4379-.2902.7007-.2902s.5148.1044.7007.2902c.1858.1859.2902.4379.2902.7007v4.2066c0 .2148.0853.4208.2372.5728.1519.1519.358.2372.5728.2372s.4208-.0853.5727-.2372c.1519-.152.2373-.358.2373-.5728v-.918s0 0 0-.0378v-1.08c0-.2621.1041-.5134.2894-.6988.1853-.1853.4367-.2894.6988-.2894h.0918c.2621 0 .5134.1041.6987.2894.1854.1854.2895.4367.2895.6988z" fill="#fff"/><g fill="#000"><path d="m26.7516 15.12 3.4884-3.4776c.1431-.1536.221-.3566.2173-.5665-.0037-.2098-.0888-.4101-.2372-.5585s-.3486-.2334-.5584-.2371c-.2099-.0037-.413.0742-.5665.2173l-3.4992 3.4992c-.0869.0728-.1576.163-.2074.2648s-.0778.2129-.082.3262c-.0041.1133.0155.2262.0577.3314s.106.2004.1872.2794c.0813.079.1783.1401.2846.1792.1064.0392.2198.0556.3329.0482s.2234-.0385.3238-.0912c.1003-.0527.1885-.1259.2588-.2148z"/><path d="m19.8936 14.958c.1518.1547.3588.2427.5756.2447.2167.0021.4253-.0821.58-.2339s.2427-.3588.2447-.5756c.0021-.2167-.0821-.4253-.2339-.58l-3.4992-3.4992c-.1535-.1431-.3566-.221-.5665-.2173-.2098.0037-.41.0887-.5584.2371-.1485.1485-.2335.3487-.2372.5585-.0037.2099.0742.4129.2173.5665z"/><path d="m24.1326 13.3596v-4.95181c0-.21482-.0854-.42085-.2373-.57275-.1519-.15191-.3579-.23725-.5727-.23725-.2149 0-.4209.08534-.5728.23725-.1519.1519-.2372.35793-.2372.57275v4.95181c0 .2148.0853.4208.2372.5728.1519.1519.3579.2372.5728.2372.2148 0 .4208-.0853.5727-.2372.1519-.152.2373-.358.2373-.5728z"/></g></svg>

<svg width="54" height="54" viewBox="0 0 54 54" fill="none" xmlns="http://www.w3.org/2000/svg">
<path d="M34.4034 24.813H34.3116C33.9628 24.8124 33.6175 24.8822 33.2964 25.0182C33.26 24.5761 33.1105 24.1509 32.8622 23.7833C32.614 23.4157 32.2755 23.1181 31.8791 22.919C31.4827 22.72 31.0418 22.6263 30.5987 22.6469C30.1556 22.6674 29.7253 22.8015 29.349 23.0364C29.0323 22.4935 28.5288 22.0844 27.9326 21.8856C27.3363 21.6869 26.6881 21.712 26.109 21.9564V18.3978C26.109 17.7053 25.8339 17.0412 25.3443 16.5516C24.8546 16.062 24.1905 15.7869 23.4981 15.7869C22.8056 15.7869 22.1415 16.062 21.6519 16.5516C21.1623 17.0412 20.8872 17.7053 20.8872 18.3978V28.0098L20.7738 27.837L20.7198 27.7614C20.5004 27.4934 20.229 27.2727 19.9219 27.1127C19.6148 26.9527 19.2784 26.8566 18.9331 26.8304C18.5878 26.8041 18.2407 26.8482 17.913 26.96C17.5852 27.0717 17.2835 27.2488 17.0262 27.4806C16.5522 27.9107 16.2557 28.5023 16.1948 29.1395C16.1339 29.7766 16.3129 30.4136 16.6968 30.9258L22.4802 39.9006V43.6212C22.4802 43.836 22.5655 44.042 22.7174 44.194C22.8693 44.3459 23.0754 44.4312 23.2902 44.4312H34.02C34.2348 44.4312 34.4408 44.3459 34.5927 44.194C34.7446 44.042 34.83 43.836 34.83 43.6212V39.9168L36.8874 37.0224C36.9854 36.8853 37.0383 36.7211 37.0386 36.5526V27.4212C37.0379 27.0766 36.969 26.7355 36.836 26.4177C36.703 26.0998 36.5085 25.8113 36.2635 25.5689C36.0186 25.3265 35.7282 25.1349 35.409 25.0052C35.0897 24.8755 34.748 24.8101 34.4034 24.813ZM35.3916 36.2988L33.3342 39.1932C33.2361 39.3303 33.1833 39.4945 33.183 39.663V42.8112H24.1002V39.663C24.0998 39.5078 24.0548 39.356 23.9706 39.2256L18.0306 30.0456L17.9874 29.9862C17.8743 29.8425 17.8056 29.6688 17.7898 29.4866C17.7739 29.3044 17.8116 29.1216 17.8982 28.9605C17.9848 28.7994 18.1165 28.667 18.2771 28.5797C18.4378 28.4924 18.6205 28.4538 18.8028 28.4688C19.0464 28.4861 19.2733 28.5986 19.4346 28.782L21.006 31.2336C21.0967 31.3927 21.2387 31.5164 21.4088 31.5845C21.5789 31.6526 21.767 31.6609 21.9424 31.6083C22.1179 31.5557 22.2703 31.4451 22.3749 31.2947C22.4794 31.1442 22.5299 30.9628 22.518 30.78V18.3978C22.518 18.135 22.6224 17.883 22.8082 17.6971C22.994 17.5113 23.2461 17.4069 23.5089 17.4069C23.7717 17.4069 24.0237 17.5113 24.2096 17.6971C24.3954 17.883 24.4998 18.135 24.4998 18.3978V28.2312C24.4998 28.446 24.5851 28.652 24.737 28.804C24.8889 28.9559 25.095 29.0412 25.3098 29.0412C25.5246 29.0412 25.7306 28.9559 25.8825 28.804C26.0344 28.652 26.1198 28.446 26.1198 28.2312V24.3594C26.1198 24.0966 26.2242 23.8446 26.41 23.6587C26.5958 23.4729 26.8479 23.3685 27.1107 23.3685C27.3735 23.3685 27.6255 23.4729 27.8114 23.6587C27.9972 23.8446 28.1016 24.0966 28.1016 24.3594V28.2312C28.1016 28.446 28.1869 28.652 28.3388 28.804C28.4907 28.9559 28.6968 29.0412 28.9116 29.0412C29.1264 29.0412 29.3324 28.9559 29.4843 28.804C29.6362 28.652 29.7216 28.446 29.7216 28.2312V25.2504C29.7216 24.9876 29.826 24.7356 30.0118 24.5497C30.1976 24.3639 30.4497 24.2595 30.7125 24.2595C30.9753 24.2595 31.2273 24.3639 31.4132 24.5497C31.599 24.7356 31.7034 24.9876 31.7034 25.2504V29.457C31.7034 29.6718 31.7887 29.8778 31.9406 30.0298C32.0925 30.1817 32.2986 30.267 32.5134 30.267C32.7282 30.267 32.9342 30.1817 33.0861 30.0298C33.238 29.8778 33.3234 29.6718 33.3234 29.457V28.539C33.3234 28.539 33.3234 28.539 33.3234 28.5012V27.4212C33.3234 27.1591 33.4275 26.9078 33.6128 26.7224C33.7981 26.5371 34.0495 26.433 34.3116 26.433H34.4034C34.6655 26.433 34.9168 26.5371 35.1021 26.7224C35.2875 26.9078 35.3916 27.1591 35.3916 27.4212V36.2988Z" fill="black"/>
<path d="M35.3916 36.2988L33.3342 39.1932C33.2361 39.3303 33.1833 39.4945 33.183 39.663V42.8112H24.1002V39.663C24.0998 39.5078 24.0548 39.356 23.9706 39.2256L18.0306 30.0456L17.9874 29.9862C17.8743 29.8425 17.8056 29.6688 17.7898 29.4866C17.7739 29.3044 17.8116 29.1216 17.8982 28.9605C17.9848 28.7994 18.1165 28.667 18.2771 28.5797C18.4378 28.4924 18.6205 28.4538 18.8028 28.4688C19.0464 28.4861 19.2733 28.5986 19.4346 28.782L21.006 31.2336C21.0967 31.3927 21.2387 31.5164 21.4088 31.5845C21.5789 31.6526 21.767 31.6609 21.9424 31.6083C22.1179 31.5557 22.2703 31.4451 22.3749 31.2947C22.4794 31.1442 22.5299 30.9628 22.518 30.78V18.3978C22.518 18.135 22.6224 17.883 22.8082 17.6971C22.994 17.5113 23.2461 17.4069 23.5089 17.4069C23.7717 17.4069 24.0237 17.5113 24.2096 17.6971C24.3954 17.883 24.4998 18.135 24.4998 18.3978V28.2312C24.4998 28.446 24.5851 28.652 24.737 28.804C24.8889 28.9559 25.095 29.0412 25.3098 29.0412C25.5246 29.0412 25.7306 28.9559 25.8825 28.804C26.0344 28.652 26.1198 28.446 26.1198 28.2312V24.3594C26.1198 24.0966 26.2242 23.8446 26.41 23.6587C26.5958 23.4729 26.8479 23.3685 27.1107 23.3685C27.3735 23.3685 27.6255 23.4729 27.8114 23.6587C27.9972 23.8446 28.1016 24.0966 28.1016 24.3594V28.2312C28.1016 28.446 28.1869 28.652 28.3388 28.804C28.4907 28.9559 28.6968 29.0412 28.9116 29.0412C29.1264 29.0412 29.3324 28.9559 29.4843 28.804C29.6362 28.652 29.7216 28.446 29.7216 28.2312V25.2504C29.7216 24.9876 29.826 24.7356 30.0118 24.5497C30.1976 24.3639 30.4497 24.2595 30.7125 24.2595C30.9753 24.2595 31.2273 24.3639 31.4132 24.5497C31.599 24.7356 31.7034 24.9876 31.7034 25.2504V29.457C31.7034 29.6718 31.7887 29.8778 31.9406 30.0298C32.0925 30.1817 32.2986 30.267 32.5134 30.267C32.7282 30.267 32.9342 30.1817 33.0861 30.0298C33.238 29.8778 33.3234 29.6718 33.3234 29.457V28.539C33.3234 28.539 33.3234 28.539 33.3234 28.5012V27.4212C33.3234 27.1591 33.4275 26.9078 33.6128 26.7224C33.7981 26.5371 34.0495 26.433 34.3116 26.433H34.4034C34.6655 26.433 34.9168 26.5371 35.1021 26.7224C35.2875 26.9078 35.3916 27.1591 35.3916 27.4212V36.2988Z" fill="white"/>
<path d="M26.7516 15.12L30.24 11.6424C30.3831 11.4888 30.461 11.2858 30.4573 11.0759C30.4536 10.8661 30.3685 10.6658 30.2201 10.5174C30.0717 10.369 29.8715 10.284 29.6617 10.2803C29.4518 10.2766 29.2487 10.3545 29.0952 10.4976L25.596 13.9968C25.5091 14.0696 25.4384 14.1598 25.3886 14.2616C25.3388 14.3634 25.3108 14.4745 25.3066 14.5878C25.3025 14.7011 25.3221 14.814 25.3643 14.9192C25.4065 15.0244 25.4703 15.1196 25.5515 15.1986C25.6328 15.2776 25.7298 15.3387 25.8361 15.3778C25.9425 15.417 26.0559 15.4334 26.169 15.426C26.2821 15.4186 26.3924 15.3875 26.4928 15.3348C26.5931 15.2821 26.6813 15.2089 26.7516 15.12Z" fill="black"/>
<path d="M19.8936 14.958C20.0454 15.1127 20.2524 15.2007 20.4692 15.2027C20.6859 15.2048 20.8945 15.1206 21.0492 14.9688C21.2039 14.817 21.2919 14.61 21.2939 14.3932C21.296 14.1765 21.2118 13.9679 21.06 13.8132L17.5608 10.314C17.4073 10.1709 17.2042 10.093 16.9943 10.0967C16.7845 10.1004 16.5843 10.1854 16.4359 10.3338C16.2874 10.4823 16.2024 10.6825 16.1987 10.8923C16.195 11.1022 16.2729 11.3052 16.416 11.4588L19.8936 14.958Z" fill="black"/>
<path d="M24.1326 13.3596V8.40779C24.1326 8.19297 24.0472 7.98694 23.8953 7.83504C23.7434 7.68313 23.5374 7.59779 23.3226 7.59779C23.1077 7.59779 22.9017 7.68313 22.7498 7.83504C22.5979 7.98694 22.5126 8.19297 22.5126 8.40779V13.3596C22.5126 13.5744 22.5979 13.7804 22.7498 13.9324C22.9017 14.0843 23.1077 14.1696 23.3226 14.1696C23.5374 14.1696 23.7434 14.0843 23.8953 13.9324C24.0472 13.7804 24.1326 13.5744 24.1326 13.3596Z" fill="black"/>
</svg>
